!!!SOCIAL_FUNCTION:	songs of games played in a ceremonial manner
!!!PDT:	1932
!!!OTL: No_23_Dancing_Song_from_the_South_God_(f).krn
!!!REG: Wisconsin
!!!LANG: Non-Tone
!!!LING_GROUP: Algonquin
**kern
*staff1
=1-
*clefF4
*k[f#c#g#d#]
*M3/4
8.B\L
16B\Jk
8.B\L
16B\Jk
8B\L
8A#\J
=2
2B\
8.c#\L
16c#\Jk
=3||
*M2/4
8.B\L
16B\Jk
4A\
=4
2A\
=5
8.B\L
16B\Jk
12A\L
12F#\
12B\J
=6||
*M3/8
4E\
8E\
=7||
*M2/4
8.B\L
16B\Jk
12A\L
12F#\
12B\J
=8
4E\
8E\
16r
16G#\
=9||
*M5/8
12G#\L
12E\
12E\J
4E\
8E\
=10||
*M2/4
8.B\L
16B\Jk
12A\L
12F#\
12A\J
=11
4E\
8E\
16r
16G#\
=12||
*M5/8
12G#\L
12E\
12E\J
4E\
8E\
=13||
*M2/4
8.B\L
16B\Jk
12A\L
12F#\
12B\J
=14
4E\
4E\
==
*-
